X:1
T: reel des Jeunes Mari\'es
C: R-84
M: C|
Z:
R: reel
K: D
"D"D2FD FAde| fafd A2ef| "A7"gfed cABc| "D"dcde fdAF|
"D"D2FD FAde| fafd A2ef| "A7"gfed cABc| dfec "D"d2fg :|
|:\
"D"a2fd Adfa| "A7"g2ec Acef| g2ec Aceg| "D"fedf "A7"eAdf|
"D"a2fd Adfa| "A7"g2ec Acef| g2ec Aceg| fdec "D"d2A2 :|
%
